X: 1071
T: Lucy's Waltz (A32)
N: page A32
N: heptatonic
R: Waltz
C: Keith Malcolm
M: 3/4
L: 1/8
K: D
A (3ABc|"D" d3F (3FAd|"F#m"c3F (3FG^G|"Bm"A4 B>A|
"D"F/E/ D3 (3ABc|d3A (3FED|F/G/F E2 D2|"A7"C2 A3 B|
A3-A (3ABc|"D"d3F (3FAd|"F#m"c3F (3FG^F|"D" A4 B>A|
F/E/D3 (3FG^G|"A7"A3-A (3AcB|A2 f2 e2|"D"d3B (3AFE|
D3-D (3DEF|"G"G3F G>B|e d3 (3dB_B|"D"A3^G (3AcB|
A4 A>_B|=B4 B>c|d/c/B-B4|"A"c2 e2 f>=f|
e2 z A(3f=fe|"D"d3F (3FAd|"F#m" c3F (3FG^G|"Bm"A4 B>A|
"D"F/E/D3 (3FG^G|"A7"A3-A (3AcB|A2 f2 e2|"D"d3B (3AFE|D3|
